X: 17574
T: Hob Nobs
R: slip jig
M: 9/8
K: Bminor
|:E3 dcA B3|E3 dcB AFD|E3 dcA B2c|1 d2c dcB AFD:|2 d2c dcB ABd||
|:e3 gfd e3|E2f gfe dBA|B2f gfd e2c|1 d3 d2B ABd:|2 d3 d2B AFD||

